img/advantages/01.svg

<svg width="69" height="45" viewBox="0 0 69 45" fill="none" xmlns="http://www.w3.org/2000/svg">
<path d="M19.8629 23.0831C16.4705 23.0831 13.7061 25.4906 13.7061 28.448C13.7061 31.4061 16.4655 33.8145 19.8629 33.8145C23.2604 33.8145 26.0197 31.4078 26.0197 28.448C26.0197 25.4881 23.2587 23.0831 19.8629 23.0831ZM19.8629 23.9716C22.4967 23.9716 24.6837 25.6245 25.0664 27.7766C24.8726 30.0918 22.6132 31.9252 19.8629 31.9252C17.1136 31.9252 14.8467 30.0918 14.6595 27.7766C15.0496 25.6245 17.2292 23.9716 19.8629 23.9716ZM19.8629 32.9268C17.4438 32.9268 15.4007 31.5284 14.7893 29.6342C15.7152 31.2531 17.6418 32.367 19.8629 32.367C22.0841 32.367 24.0107 31.2506 24.9366 29.6342C24.3252 31.5284 22.2821 32.9268 19.8629 32.9268ZM48.5414 23.0831C45.149 23.0831 42.3854 25.4906 42.3854 28.448C42.3854 31.4061 45.144 33.8145 48.5414 33.8145C51.9397 33.8145 54.6982 31.4078 54.6982 28.448C54.6982 25.4881 51.9322 23.0831 48.5414 23.0831ZM48.5414 23.9716C51.1751 23.9716 53.3622 25.6245 53.7448 27.7766C53.551 30.0918 51.2916 31.9252 48.5414 31.9252C45.792 31.9252 43.5251 30.0918 43.3379 27.7766C43.7214 25.6245 45.9076 23.9716 48.5414 23.9716ZM48.5414 32.9268C46.1223 32.9268 44.0792 31.5284 43.4686 29.6342C44.3936 31.2531 46.3211 32.367 48.5414 32.367C50.7625 32.367 52.6875 31.2506 53.6151 29.6342C53.002 31.5284 50.9614 32.9268 48.5414 32.9268ZM68.9883 3.53129C68.9883 3.51298 68.9883 3.49468 68.9883 3.47638V3.2942C68.9925 3.19853 68.9675 3.11118 68.9135 3.03299C68.3411 0.140516 65.8488 0.327691 65.8213 0.330186C65.759 0.335178 65.7024 0.355143 65.6508 0.391746C65.5992 0.427517 65.5601 0.473271 65.5343 0.529839L64.7815 2.10127C64.3764 1.77351 63.9296 1.52062 63.4397 1.34176C62.9505 1.16374 62.4455 1.0689 61.9248 1.05809H6.65341C6.23248 1.06973 5.82485 1.15043 5.43054 1.30183C5.03706 1.45323 4.68018 1.6662 4.3599 1.93989L3.54548 0.238679C3.51886 0.18211 3.47893 0.135525 3.42735 0.0997537C3.37578 0.0631507 3.31921 0.0423535 3.25599 0.0356984C3.22853 0.0356984 0.608923 -0.162291 0.127261 2.96893C0.0399125 3.05961 -0.00251379 3.16858 -1.80804e-05 3.2942L0.889269 28.4638C0.890933 28.5087 0.899251 28.5519 0.914225 28.5935L5.64849 42.3188C5.6826 42.4153 5.7425 42.491 5.82818 42.5468C6.01036 42.9893 6.28073 43.3687 6.6401 43.6856C7.28731 44.2505 8.16329 44.535 9.25306 44.535C9.5176 44.5341 9.7813 44.5183 10.0442 44.4867C10.0891 44.4817 10.1315 44.4693 10.1715 44.4485C10.2114 44.4277 10.2455 44.4002 10.2754 44.3661C10.3046 44.332 10.327 44.2937 10.342 44.2513C10.3561 44.2089 10.3628 44.1648 10.3611 44.1199L10.2014 40.477H24.8293C24.9133 40.477 24.9907 40.4554 25.0622 40.4113C25.1338 40.3681 25.1887 40.3082 25.2261 40.2333L29.0478 32.5966H39.5029C39.5287 32.5991 39.5545 32.5991 39.5803 32.5966L43.4045 40.2383C43.4436 40.3123 43.4985 40.3714 43.57 40.4146C43.6416 40.4587 43.7198 40.4812 43.803 40.482H58.8867L58.7187 44.421C58.7162 44.4659 58.7229 44.5092 58.737 44.5516C58.752 44.5949 58.7736 44.6331 58.8027 44.6672C58.8318 44.7014 58.8668 44.7288 58.9067 44.7504C58.9458 44.7712 58.9882 44.7845 59.0331 44.7895C59.296 44.8186 59.5597 44.8345 59.8243 44.8353C60.914 44.8353 61.7925 44.5508 62.4372 43.9884C62.7409 43.7131 62.9846 43.3928 63.1685 43.0268C63.3515 42.6607 63.4621 42.2739 63.5004 41.8663L68.0608 28.6077C68.0758 28.5652 68.0841 28.522 68.0857 28.4779L68.9609 3.67936C68.9817 3.63194 68.9908 3.58286 68.9883 3.53129ZM6.67005 1.93739H61.9331C62.3881 1.94737 62.8266 2.03722 63.2483 2.20859C63.6693 2.37912 64.0469 2.61871 64.3805 2.92817L63.7508 4.24837H5.47296L4.75921 2.76845C5.01293 2.51472 5.30492 2.31673 5.63518 2.17448C5.96544 2.03223 6.31067 1.95652 6.67005 1.94654V1.93739ZM60.1279 11.8901L59.9956 14.9365H59.2037C59.2095 12.3751 59.0573 9.82368 58.7478 7.28143C58.7412 7.23401 58.7204 7.19325 58.6879 7.15831C58.6546 7.1242 58.6147 7.10174 58.5681 7.09259C46.2845 4.96379 37.3617 7.07679 37.2793 7.09259C37.1961 7.11422 37.1421 7.16663 37.1179 7.24982C36.9441 7.97522 36.8251 8.70978 36.7594 9.45349H32.3928C32.2788 8.10833 32.1649 7.28559 32.1649 7.27644C32.1574 7.22902 32.1374 7.18826 32.1041 7.15332C32.07 7.11838 32.0301 7.09675 31.9827 7.0876C19.7016 4.9588 10.7762 7.0693 10.6939 7.0876C10.6107 7.10923 10.5566 7.16164 10.5325 7.24483C10.505 7.34549 9.86865 9.71553 9.97597 14.9273H9.09333L8.95025 11.5898C8.94775 11.5415 8.93611 11.4958 8.91531 11.4525L5.80738 4.96546H63.4114L60.162 11.7537C60.1421 11.7969 60.1312 11.8427 60.1279 11.8901ZM47.064 9.65647C47.0224 9.59491 46.9691 9.54749 46.9034 9.51255C46.8385 9.47761 46.7686 9.45931 46.6946 9.45848H37.1978C37.2627 8.79962 37.3658 8.14659 37.5056 7.50022C38.6453 7.24982 47.0232 5.57357 58.3194 7.50022C58.6097 9.96926 58.757 12.4474 58.7595 14.934H45.9534V12.8052L47.0939 10.0732C47.1555 9.92933 47.1455 9.7904 47.064 9.65647ZM21.525 10.0749L22.6656 12.8077V14.9389H10.421C10.327 10.4534 10.8012 8.05758 10.9293 7.50188C12.069 7.25148 20.4469 5.57606 31.7456 7.50188C31.7822 7.79803 31.8637 8.4885 31.9461 9.45848H21.9385C21.9019 9.45931 21.8661 9.46513 21.8312 9.47428C21.7962 9.48427 21.763 9.49841 21.7314 9.51588C21.6997 9.53335 21.6706 9.55414 21.644 9.5791C21.6174 9.60406 21.5941 9.63151 21.5741 9.66146C21.5542 9.69141 21.5375 9.72385 21.525 9.75796C21.5126 9.79123 21.5051 9.827 21.5009 9.86277C21.4968 9.89855 21.4968 9.93432 21.5018 9.97092C21.5059 10.0067 21.5151 10.0416 21.5275 10.0749H21.525ZM2.99644 0.739474L3.85578 2.54051C3.8408 2.61787 3.84579 2.69358 3.86992 2.76761C3.89487 2.84248 3.93564 2.90654 3.99304 2.95978C4.02049 2.9839 4.05127 3.00387 4.08371 3.02134L4.91394 4.75582L8.24315 11.7029L8.38207 14.9365H5.92884C5.86894 14.9381 5.81237 14.9506 5.75747 14.9747C5.7034 14.998 5.65515 15.0313 5.61355 15.0737C5.57196 15.1161 5.54035 15.1652 5.51789 15.2201C5.49542 15.275 5.48378 15.3324 5.48378 15.3915V21.0159C5.48794 21.1157 5.52038 21.2047 5.58277 21.2829C5.64516 21.3611 5.72503 21.4135 5.82152 21.4393C6.80315 21.7172 7.73819 22.1073 8.62581 22.6098L9.06422 32.6739C8.1924 33.0566 7.27982 33.2388 6.32731 33.2205C6.2017 33.2155 6.09189 33.2554 5.99955 33.3411C5.98457 33.3544 5.97126 33.3702 5.96045 33.3869L5.09861 12.3318C5.09612 12.2827 5.0853 12.237 5.06451 12.1929L0.893428 3.39652V3.26508C0.891764 3.1952 0.873463 3.12948 0.839355 3.06876C1.15381 1.05143 2.49231 0.776077 2.9981 0.74613L2.99644 0.739474ZM9.93021 32.1615L9.54089 23.1746C11.4967 24.5747 12.3518 26.3075 12.0831 28.3298C11.8228 30.3039 10.9451 31.4744 9.93271 32.1773L9.93021 32.1615ZM0.957483 5.1909L4.39151 12.4316L5.47296 39.0953L1.77606 28.3656L0.957483 5.1909ZM9.63656 43.8087C8.54595 43.877 7.69826 43.6582 7.12842 43.1549C6.85473 42.9161 6.64759 42.6291 6.50783 42.2939C6.53445 42.2065 6.53445 42.1183 6.50783 42.0302L6.30235 41.4354L6.26409 40.4637H9.51094L9.63656 43.8087ZM29.4929 31.7015L29.8206 31.0459C29.8348 31.021 29.8456 30.9944 29.8531 30.9661L29.8639 30.9253H38.7576L38.7825 30.9894C38.7884 31.0085 38.7958 31.0276 38.805 31.0459L39.1336 31.7015H29.4929ZM30.2881 30.0377C30.4753 29.7232 30.7008 29.4396 30.9636 29.185C31.2273 28.9313 31.5185 28.7167 31.8396 28.5403C32.1607 28.3648 32.4985 28.2333 32.8545 28.1485C33.2106 28.0628 33.5708 28.0254 33.9368 28.0362C35.5057 27.9971 36.7918 28.4729 37.7585 29.4587C37.934 29.6392 38.0954 29.8322 38.2418 30.0377H30.2881ZM39.6169 30.6699C39.4705 30.2881 38.112 27.0404 33.9393 27.1477C30.8854 27.1477 29.5927 29.3106 29.1684 30.2739C29.1576 30.2956 29.1476 30.3172 29.1393 30.3405C29.0728 30.4994 29.0295 30.6175 29.0112 30.6816L24.5539 39.5803H6.74492V34.0948C7.75816 34.0391 8.72231 33.7945 9.63822 33.3594C9.69978 33.3453 9.75552 33.3186 9.8046 33.2795C11.228 32.535 12.6189 31.1283 12.9749 28.4638C13.4008 25.276 11.3486 23.227 9.36952 22.025C9.3246 21.9825 9.27302 21.9509 9.21479 21.931C8.31802 21.4077 7.37466 20.9876 6.38471 20.6723V15.8249H23.1356C23.1955 15.8249 23.2537 15.8133 23.3094 15.79C23.366 15.7667 23.4151 15.7342 23.4575 15.691C23.5008 15.6485 23.5332 15.5995 23.5565 15.5437C23.5798 15.488 23.5915 15.4298 23.5915 15.369V12.7161C23.5915 12.6562 23.5798 12.5988 23.5573 12.5431L22.6315 10.3461H46.0241L45.0982 12.5431C45.0758 12.5988 45.0641 12.6562 45.0641 12.7161V15.3807C45.0641 15.4406 45.0758 15.4988 45.099 15.5545C45.1223 15.6103 45.1548 15.6602 45.198 15.7026C45.2405 15.745 45.2896 15.7783 45.3461 15.8016C45.4019 15.8241 45.4601 15.8357 45.52 15.8357H60.0114C60.0397 15.8956 60.0813 15.943 60.1362 15.9788C60.1911 16.0146 60.251 16.0337 60.3168 16.0362C60.3883 16.0404 60.454 16.0246 60.5156 15.988C60.5763 15.9514 60.6221 15.9006 60.652 15.8357H62.2509V20.6723C61.404 20.9427 60.5896 21.2896 59.8085 21.713C59.7378 21.7305 59.6762 21.7637 59.6238 21.8128C57.5441 22.9874 55.2065 25.083 55.6582 28.4638C56.0434 31.3537 57.6464 32.7654 59.1879 33.4526C59.2428 33.4933 59.3035 33.5191 59.3709 33.5299C60.1753 33.8577 61.0114 34.0457 61.879 34.0948V39.5803H44.0767L39.6169 30.6699ZM56.55 28.3456C56.2671 26.2326 57.2113 24.4358 59.3568 23.0058L59.4574 22.94L59.0465 32.4052C57.9184 31.7381 56.8395 30.531 56.55 28.3456ZM61.9655 43.4444C61.3816 43.9493 60.538 44.1681 59.4458 44.0999L59.603 40.4562H62.3391C62.3981 40.4554 62.4539 40.4429 62.5079 40.4196C62.562 40.3972 62.6094 40.3647 62.651 40.3231C62.6918 40.2824 62.7242 40.235 62.7475 40.1809C62.77 40.1268 62.7825 40.0711 62.7841 40.0128V33.6373C62.7841 33.5765 62.7725 33.5175 62.7484 33.4617C62.7242 33.406 62.6901 33.3569 62.646 33.3145C62.6019 33.2729 62.5512 33.2413 62.4938 33.2205C62.4364 33.1989 62.3773 33.1897 62.3166 33.193C61.493 33.2138 60.6944 33.0816 59.9224 32.7946L60.3783 22.3843C61.157 21.9859 61.968 21.6706 62.8116 21.4393C62.9089 21.4127 62.9888 21.3594 63.0503 21.2796C63.1127 21.2006 63.1443 21.1099 63.1468 21.0092V15.3807C63.1468 15.3208 63.1352 15.2642 63.1127 15.2085C63.0903 15.1536 63.0587 15.1053 63.0171 15.0621C62.9755 15.0196 62.9272 14.9864 62.8731 14.9631C62.8182 14.9389 62.7617 14.9265 62.7018 14.9248H60.7094L60.8367 11.9808L66.0809 1.02398C66.5601 1.04727 67.7754 1.28602 68.1814 3.01219C68.1307 3.08456 68.1032 3.16526 68.0991 3.25344L68.0766 3.90896L64.0128 12.484C63.9929 12.5273 63.9812 12.5731 63.9787 12.6205L62.8207 41.0826L62.4971 42.0185C62.4697 42.1025 62.4672 42.1866 62.4888 42.2714C62.5104 42.3571 62.5537 42.4295 62.6178 42.4902C62.4788 42.862 62.2609 43.1798 61.9631 43.4444H61.9655ZM63.6185 38.7442L64.6792 12.7145L68.0009 5.70584L67.2006 28.3573L63.6185 38.7442Z" fill="url(#paint0_linear_9_173)"/>
<defs>
<linearGradient id="paint0_linear_9_173" x1="-0.00012207" y1="22.4342" x2="68.9888" y2="22.4342" gradientUnits="userSpaceOnUse">
<stop stop-color="#0CBAF1"/>
<stop offset="1" stop-color="#E95CE9"/>
</linearGradient>
</defs>
</svg>

<svg xmlns="http://www.w3.org/2000/svg" width="69" height="45" fill="none"><path fill="url(#a)" d="M19.863 23.083c-3.392 0-6.157 2.408-6.157 5.365 0 2.958 2.76 5.367 6.157 5.367 3.397 0 6.157-2.407 6.157-5.367s-2.761-5.365-6.157-5.365Zm0 .889c2.634 0 4.82 1.652 5.203 3.805-.193 2.315-2.453 4.148-5.203 4.148-2.75 0-5.016-1.833-5.204-4.148.39-2.152 2.57-3.805 5.204-3.805Zm0 8.955c-2.42 0-4.462-1.399-5.074-3.293.926 1.62 2.853 2.733 5.074 2.733 2.221 0 4.148-1.116 5.074-2.733-.612 1.894-2.655 3.293-5.074 3.293Zm28.678-9.844c-3.392 0-6.156 2.408-6.156 5.365 0 2.958 2.759 5.367 6.156 5.367 3.399 0 6.157-2.407 6.157-5.367s-2.766-5.365-6.157-5.365Zm0 .889c2.634 0 4.821 1.652 5.204 3.805-.194 2.315-2.453 4.148-5.204 4.148-2.749 0-5.016-1.833-5.203-4.148.383-2.152 2.57-3.805 5.203-3.805Zm0 8.955c-2.419 0-4.462-1.399-5.072-3.293.925 1.62 2.852 2.733 5.072 2.733 2.222 0 4.147-1.116 5.074-2.733-.613 1.894-2.654 3.293-5.074 3.293ZM68.988 3.53v-.237a.416.416 0 0 0-.075-.261C68.341.141 65.85.328 65.822.33a.335.335 0 0 0-.17.062.335.335 0 0 0-.117.138L64.781 2.1a4.685 4.685 0 0 0-2.857-1.043H6.655a3.67 3.67 0 0 0-2.294.882L3.545.239a.347.347 0 0 0-.118-.14.353.353 0 0 0-.171-.063C3.229.036.609-.162.127 2.969A.44.44 0 0 0 0 3.294l.89 25.17c0 .045.01.088.024.13l4.734 13.725a.44.44 0 0 0 .18.228c.182.442.453.822.812 1.139.647.565 1.523.849 2.613.849.265 0 .528-.017.791-.048a.36.36 0 0 0 .231-.12.36.36 0 0 0 .086-.247l-.16-3.643H24.83a.434.434 0 0 0 .233-.066.427.427 0 0 0 .164-.178l3.822-7.636h10.455a.4.4 0 0 0 .077 0l3.825 7.641c.039.074.093.133.165.177.072.044.15.066.233.067h15.084l-.168 3.939a.348.348 0 0 0 .084.246.36.36 0 0 0 .23.122c.263.03.527.045.791.046 1.09 0 1.968-.284 2.613-.847a3.266 3.266 0 0 0 1.063-2.122l4.56-13.258a.435.435 0 0 0 .026-.13l.875-24.799a.324.324 0 0 0 .027-.148ZM6.67 1.937h55.263c.455.01.894.1 1.315.272.421.17.799.41 1.133.72l-.63 1.32H5.473l-.714-1.48a2.79 2.79 0 0 1 1.91-.822v-.01Zm53.458 9.953-.132 3.046h-.792a62.116 62.116 0 0 0-.456-7.655.223.223 0 0 0-.18-.188c-12.283-2.13-21.206-.016-21.289 0a.214.214 0 0 0-.161.157c-.174.725-.293 1.46-.359 2.203h-4.366c-.114-1.345-.228-2.167-.228-2.177a.225.225 0 0 0-.182-.188c-12.281-2.13-21.207-.019-21.29 0a.214.214 0 0 0-.16.157c-.028.1-.664 2.47-.557 7.682h-.883L8.95 11.59a.356.356 0 0 0-.035-.137L5.807 4.965h57.604l-3.249 6.789a.388.388 0 0 0-.034.136ZM47.064 9.656a.438.438 0 0 0-.16-.143.446.446 0 0 0-.21-.055h-9.496c.065-.658.168-1.311.308-1.958 1.14-.25 9.517-1.926 20.813 0 .29 2.47.438 4.947.44 7.434H45.954v-2.129l1.14-2.732a.433.433 0 0 0-.029-.417Zm-25.539.419 1.14 2.733v2.13H10.422c-.094-4.485.38-6.88.508-7.436 1.14-.25 9.518-1.926 20.817 0 .036.296.118.987.2 1.956H21.938a.464.464 0 0 0-.207.058.43.43 0 0 0-.157.145.462.462 0 0 0-.072.31c.004.036.013.07.026.104h-.003ZM2.996.739l.86 1.802a.447.447 0 0 0 .228.48l.83 1.735 3.33 6.947.138 3.234H5.93a.45.45 0 0 0-.315.137.45.45 0 0 0-.13.318v5.624c.004.1.036.189.099.267.062.078.142.13.239.156.981.278 1.916.668 2.804 1.17l.438 10.065a6.424 6.424 0 0 1-2.737.547.439.439 0 0 0-.367.166L5.1 12.332a.363.363 0 0 0-.034-.14L.893 3.398v-.132A.416.416 0 0 0 .84 3.07C1.154 1.05 2.492.776 3 .746L2.995.74ZM9.93 32.161l-.39-8.986c1.957 1.4 2.812 3.133 2.543 5.155-.26 1.974-1.138 3.144-2.15 3.847l-.003-.016ZM.957 5.191l3.435 7.24 1.081 26.664-3.697-10.73L.957 5.192Zm8.68 38.618c-1.091.068-1.939-.15-2.509-.654a2.306 2.306 0 0 1-.62-.861.445.445 0 0 0 0-.264l-.206-.595-.038-.971h3.247l.126 3.345Zm19.856-12.107.328-.656a.332.332 0 0 0 .032-.08l.01-.04h8.895l.024.063c.006.02.014.039.023.057l.329.655h-9.641Zm.795-1.664a4.108 4.108 0 0 1 2.567-1.89 4.087 4.087 0 0 1 1.082-.112c1.569-.039 2.855.437 3.822 1.423.175.18.336.373.483.579h-7.954Zm9.329.632c-.146-.382-1.505-3.63-5.678-3.522-3.054 0-4.346 2.163-4.77 3.126a3.577 3.577 0 0 0-.157.408l-4.458 8.898H6.744v-5.485a7.658 7.658 0 0 0 2.894-.736.412.412 0 0 0 .167-.08c1.423-.744 2.814-2.15 3.17-4.815.426-3.188-1.626-5.237-3.605-6.439a.422.422 0 0 0-.155-.094 14.074 14.074 0 0 0-2.83-1.259v-4.847h16.75a.447.447 0 0 0 .322-.134.442.442 0 0 0 .134-.322v-2.653a.457.457 0 0 0-.034-.173l-.925-2.197h23.392l-.926 2.197a.459.459 0 0 0-.034.173v2.665a.449.449 0 0 0 .134.322.452.452 0 0 0 .322.133h14.491a.348.348 0 0 0 .305.2.34.34 0 0 0 .336-.2h1.599v4.836c-.847.27-1.661.618-2.442 1.041a.41.41 0 0 0-.185.1c-2.08 1.174-4.418 3.27-3.966 6.65.385 2.89 1.988 4.302 3.53 4.99.055.04.115.066.183.077.804.328 1.64.516 2.508.565v5.485H44.077l-4.46-8.91Zm16.933-2.324c-.283-2.113.661-3.91 2.807-5.34l.1-.066-.41 9.465c-1.129-.667-2.207-1.874-2.497-4.06Zm5.416 15.098c-.584.505-1.428.724-2.52.656l.157-3.644h2.736a.436.436 0 0 0 .169-.036.451.451 0 0 0 .276-.407v-6.376a.44.44 0 0 0-.29-.416.432.432 0 0 0-.177-.028 6.35 6.35 0 0 1-2.395-.398l.456-10.41c.779-.4 1.59-.714 2.434-.946a.44.44 0 0 0 .238-.16.443.443 0 0 0 .097-.27v-5.628a.453.453 0 0 0-.274-.418.45.45 0 0 0-.171-.038h-1.993l.128-2.944L66.08 1.024c.48.023 1.694.262 2.1 1.988a.45.45 0 0 0-.082.241l-.022.656-4.064 8.575a.372.372 0 0 0-.034.136L62.82 41.084l-.324.936a.445.445 0 0 0-.008.252.445.445 0 0 0 .129.22c-.14.371-.357.689-.655.953h.002Zm1.652-4.7 1.061-26.03 3.322-7.008-.8 22.651-3.582 10.387Z"/><defs><linearGradient id="a" x1="0" x2="68.989" y1="22.434" y2="22.434" gradientUnits="userSpaceOnUse"><stop stop-color="#0CBAF1"/><stop offset="1" stop-color="#E95CE9"/></linearGradient></defs></svg>
